X:1
T:Où est le fruict
T:Maître Gosse
T:Source ; Livre XII de 30 chansons nouvelles à 4 parties---Paris---P.Attaingnant---1543. Editor : André Vierendeels (18/06/18) Notes : Original clefs : C1, C3, C3, F3 Original note values have been halved Editorial accidentals above the staff Square brackets indicate ligatutes Dotted bracket indicates black notes
T:Où est le fruict
T:©
T:©
T:©
C:Maître Gosse
Z:©
%%score [ 1 2 [ 3 4 ] ]
L:1/8
Q:1/4=120
M:2/2
K:C
V:1 treble nm="Soprano" snm="S"
V:2 treble nm="Alto" snm="A"
V:3 treble-8 nm="Tenor 1" snm="T 1"
V:4 treble-8 nm="Tenor 2" snm="T 2"
V:1
 z4 G4- | G4 G4 | A4 G4- | G4 z2 G2 | G2 G2 G4 | z2 A2 A2 G2 | A2 F2 G4 | G4 z2 c2 | c2 B2 c2 A2- | %9
w: Où|_ est|le fruict,|_ où|est le fruict,|que pres de|vous pour- chas-|se, que|pres de vous pour-|
 AG G2 F2 A2- | A2 G4 F2 | G8 | z2 d2 d2 d2 | B4 z2 G2- | G2 G2 A2 c2- | c2 c2 B2 A2 | c4 _B2 A2- | %17
w: * * chas- * *||se,|qui peult au|gré du|_ vou- loir sa-|* tis- fai- *||
 A2 G2 A4 | z2 c2 c2 c2 | A4 z2 c2 | c2 c2 B4 | A8 | G4 z2 c2 | c2 B2 c3 d | e2 d3 c c2- | %25
w: * * re?|He- las, he-|las, he-|las, he- las,|a-|mour, si|ie ne le _|_ puis _ _|
 c2 BA B3 G | G4 z2 c2 | c2 B2 c2 d2- | dc c4 BA | B2 A3 G G2- | G2 F2 G4- | G4 z2 G2 | G2 G2 G4 | %33
w: _ _ _ fai- *|re, si|ie ne le puis|_ _ _ _ _|* fai- * *|* * re,|_ c'est|toy, pour vray,|
 z2 A2 A2 G2 | A2 F2 G4 | G4 z2 c2 | c2 B2 c2 A2- | AG G6 | G8- | G8- | G8 |] %41
w: qui me don-|ne la chas-|se, qui|me don- ne la|_ _ chas-|se.|_||
V:2
 D4 E4- | E2 DC D2 E2 | F4 D4 | D4 D4 | E4 z2 G2 | G2 F2 F2 D2 | F4 E4 | D4 z2 A2 | A2 G2 A3 G/F/ | %9
w: Où est|_ _ _ _ le|fruict, où|est le|fruict, que|pres de vous pour-|chas- *|se, que|pres de vous _ _|
 E3 C F4 | E4 z2 D2 | D2 D2 B,4 | z2 D4 D2 | G4 F2 E2 | D4 C4 | z2 G4 F2 | G4 F2 E2 | %17
w: _ pour- chas-|se, qui|peult au gré,|du vou-|loir sa- tis-|fai- re,|du vou-|loir sa- tis-|
 D3 E F3 E/D/ | E4 z2 E2 | E2 E2 E4 | z2 F2 D2 D2 | F4 F4 | E8 | z2 G2 G2 F2 | G2 D2 E2 G2- | %25
w: fai- * * * *|re? He-|las, he- las,|he- las, he-|las, a-|mour,|si ie ne|le puis fai- *|
 G2 F2 G4- | G2 G/F/E/D/ E3 D/C/ | D4 C2 B,2 | C4 G,2 D2 | F4 E4 | D8 | z2 D2 D2 D2 | E4 z2 G2 | %33
w: ||* re, c'est|toy, pour vray,|_ _||c'est toy, pour|vray, qui|
 G2 F2 F2 E2 | F4 E4 | D4 z2 A2 | A2 G2 A3 G/F/ | E6 D2 | E2 G3 F D2 | E4 D4- | D8 |] %41
w: me don- ne la|chas- *|se, qui|me don- ne _ _|_ la|chas- * * *|* se.|_|
V:3
 G4 c4- | c2 BA B2 c2 | A4 z2 B2 | B3 A/G/ A2 B2 | c4 G4 | z2 c2 c2 B2 | A2 A2 c3 B/A/ | G4 z2 e2 | %8
w: Où est|_ _ _ _ le|fruict, où|est _ _ _ _|le fruict,|que pres de|vous pour- chas- * *|se, que|
 d2 d2 A2 A2 | c3 B/A/ _B2 A2 | c3 B AG A2 | G4 z2 d2 | d2 d2 B4 | d4 c4 | G4 z2 c2- | %15
w: pres de vous pour-|chas- * * * *||se, qui|peult au gré|du vou-|loir, du|
 c2 c2 d2 f2- | f2 e2 d2 c2 |"^b" B4 A4- | A4 z2 c2 | c2 c2 c4 | A4 B4 | c4 d3 c | BA B2 A4 | %23
w: _ vou- loir sa-|* tis- fai- *|* re?|_ He-|las, he- las,|he- las,|a- * *|* * * mour,|
 z4 z2 c2 | c2 B2 c2 c2 | A4 G4 | z2 g2 g2 f2 | g3 f e2 d2 | f4 e2 d2- | d2 A2 c3 B | %30
w: si|ie ne le puis|fai- re,|si ie ne|le _ _ puis|fai- re, c'est|_ toy pour _|
 AG A2 G2 B2- | B2 AG A2 B2 | c4 G4 | z2 c2 c2 B2 | A2 A2 c3 B/A/ | G4 z2 e2 | d2 d2 A2 A2 | %37
w: _ _ vray, c'est toy|_ _ _ _ _|pour vray,|qui me don-|ne la chas- * *|se, qui|me don- ne la|
 c3 B c2 d2- | dc c4 B2 | c6 BA | B8 |] %41
w: chas- * * *|||se.|
V:4
 z8 | z8 | D4 G4- | G2 FE F2 G2 | C2 c2 c2 B2 | A3 G F2 G2 | F3 E/D/ C2 c2 | c2 B2 A3 G | %8
w: ||Où est|_ _ _ _ le|fruict, que pres de|vous _ _ pour-|chas- * * se, que|pres de vous _|
 F2 G2 F3 E/D/ | C4 D4 | E2 C2 D4 | z2 G2 G2 G2 | D4 z2 G2- | G2 G2 A2 c2- | c2 B2 A3 G | %15
w: _ pour- chas- * *||* * se,|qui peult au|gré, du|_ vou- loir sa-|* tis- fai- *|
 F2 E2 D4 | C4 z4 | z4 z2 c2 | c2 c2 A4 | z2 A2 A2 A2 | F4 G4 | F4 D4 | E4 z2 A2 | A2 G2 A2 A2 | %24
w: |re?|He-|las, he- las,|he- las, he-|las, he-|las, a|mour, si|ie ne le puis|
 G4 C4 | z2 c2 d2 B2 | c2 c2 A4 | G4 z2 G2 | F2 F2 G4 | z2 D2 C2 C2 | D4 z2 G2- | G2 FE F2 G2 | %32
w: fai- re,|si ie ne|le puis fai-|re, c'est|toy, pour vray,|c'est toy, pour|vray, c'est|_ _ _ toy, pour|
 C2 c2 c2 B2 | A3 G F2 G2 | F3 E/D/ C2 c2 | c2 B2 A3 G | F2 G2 F3 E/D/ | C6 B,2 | C3 D EF G2 | %39
w: vray, qui me don-|ne _ _ la|chas- * * se, qui|me don- ne la|chas- * * * *|||
 C4 G4- | G8 |] %41
w: * se.|_|

